!!!COM: Buxtehude, Dietrich
!!!CDT: ~1637///-1707/05/09/
!!!ODT: ~1694///
!!!OTL: Sonata in A Minor, Op. 1, No. 3
!!!OPS: Op. 1
!!!ONM: No. 3
!!!SCA: BuxWV 254
!!!OMD: 5. Largo
!!!URL: http://www.lysator.liu.se/~tuben/scores
!!!ONB: Johan Tufvessons, ed.
**kern	**kern	**kern
*staff3	*staff2	*staff1
*Icemba	*Iviola	*Ivioln
*clefF4	*clefC3	*clefG2
*k[]	*k[]	*k[]
*met(C)	*met(C)	*met(C)
*M4/4	*M4/4	*M4/4
*MM44	*MM44	*MM44
=189-	=189-	=189-
4r	2r	1r
4E\	.	.
4D#\	4r	.
4Dn\	8b\L	.
.	8b\J	.
=190	=190	=190
4C#/	(8b-\L	2r
.	8b-\	.
4Cn/	8a\	.
.	8a\J)	.
4BB/	8g#\L	4r
.	8g#\	.
4EE/	8gn\	8ee\L
.	8g\J	8ee\J
=191	=191	=191
4BB/	[1f#	(8dd#\L
.	.	8dd#\
4B\	.	8ddn\
.	.	8dd\J)
4A#\	.	(8cc#\L
.	.	8cc#\
4An\	.	8ccn\
.	.	8cc\J)
=192	=192	=192
4G#\	(8f#\L]	(8b\L
.	8f\	8b\
4Gn\	8e\	8b\
.	8e\J)	8cc#\J)
4F#\	(8e\L	(8a#/L
.	8e\	8a#/
4BB/	8d#\	8b/
.	8d#\J)	8b/J)
=193	=193	=193
4C#/	(8e\L	(8a#/L
.	8e\	8a#/
4D#\	8f#\	8an/
.	8f#\J)	8a/J)
4E\	(8B\L	(8g#/L
.	8B\	8g#/
4E\	8e\	8gn/
.	8e\J)	8g/J)
=194	=194	=194
4B\	(8d#\L	(8f#/L
.	8d#\	8f#/
4B\	8dn\	8b/
.	8d\J)	8b/J)
4B\	(8c#\L	(8e/L
.	8c#\	8e/
[4A\	8cn\	8a/
.	8c\J)	8a/J)
=195	=195	=195
4A\]	(8B/L	(8d#/L
.	8B/	8d#/
4G#\	8B/	8e/
.	8B/J)	8e/J)
4A\	(8c\L	(8e/L
.	8c\	8e/
4AA/	8c#\	8f#/
.	8c#\J)	8f#/J)
=196	=196	=196
4BB-/	(8d\L	(8g/L
.	8d\	8g/
4BBn/	8d\	8g/
.	8d\J)	8g/J)
4C/	8d#\L	(8g#/L
.	8d#\	8g#/
4C#/	8e\	8a/
.	8e\J	8a/J)
=197	=197	=197
4D\	8f#\L	(8a/L
.	8f#\	8a/
[4GG/	8g\	8b/
.	8g\J	8b/J)
4GG/]	8a\L	8cc\L
.	16b\L	16dd\L
.	16cc\JJ	16ee\JJ
4FF#/	4a\	8.dd\L
.	.	16cc\Jk
=198	=198	=198
1GG;	1g;	1b;
==	==	==
*-	*-	*-
!!!ENC: Craig Stuart Sapp
!!!END: 2004/12/15/
